X:11
T:Bourree d'Oulches
Z:Jack Campin, 2014
F:http://www.campin.me.uk/Music/YoupNannetteD.abc
S:p18, p1000207.jpg
M:3/8
L:1/8
Q:1/4=120
K:G
D   |GF/G/F/E/|DGB   |AcF      |AG\
D   |GF/G/F/E/|DGB   |AcF      |G2:|
B/c/|ded      |A2A/B/|cA/c/A/c/|BG\
B/c/|ded      |A2A/B/|cAF      |G2:|

